epam-assets/icon-sources/18/file-file_word.svg

<svg width="18" height="18" viewBox="0 0 18 18" fill="none" xmlns="http://www.w3.org/2000/svg">
<g id="18/file-file_word">
<path id="icon" fill-rule="evenodd" clip-rule="evenodd" d="M10.5 1.5H4.5C3.67157 1.5 3 2.17157 3 3V15C3 15.8284 3.67157 16.5 4.5 16.5H13.5C14.3284 16.5 15 15.8284 15 15V6L10.5 1.5ZM11.4 15H10.35L9 9.9L7.65 15H6.6L4.95 8.25H6.075L7.125 13.35L8.475 8.25H9.45L10.8 13.35L11.85 8.25H12.975L11.4 15ZM9.75 6.75V2.625L13.875 6.75H9.75Z" fill="#6C6F80"/>
</g>
</svg>

<svg xmlns="http://www.w3.org/2000/svg" width="18" height="18" fill="none" viewBox="0 0 18 18">
  <path fill="#6C6F80" fill-rule="evenodd" d="M10.5 1.5h-6A1.5 1.5 0 0 0 3 3v12a1.5 1.5 0 0 0 1.5 1.5h9A1.5 1.5 0 0 0 15 15V6l-4.5-4.5Zm.9 13.5h-1.05L9 9.9 7.65 15H6.6L4.95 8.25h1.125l1.05 5.1 1.35-5.1h.975l1.35 5.1 1.05-5.1h1.125L11.4 15ZM9.75 6.75V2.625l4.125 4.125H9.75Z" clip-rule="evenodd"/>
</svg>
